X:1
T:Title
%%score { ( 1 3 ) | ( 2 4 ) }
L:1/8
M:4/4
K:Bb
V:1 treble nm="Grand Piano"
V:3 treble 
V:2 bass 
V:4 bass 
V:1
 z4 z2[Q:1/4=100] B,2 | F2 E2 D2 z[K:bass] E, | B,6[K:treble] [CF]2 | %3
 [Dd]2 [B,FB]2 [CEA]2 .[DFB]2 | [A,Fc]8 | [Fc]2 [=Ec][Ec] F2 z B, | F6 F2 | %7
 [B,FB]2 [DFB]2 [CFA]2 [Fc]2 | [FB]2 [Fd]2 c2 F2 | B2 [DB]2 A2 [Fc]2 | [FB]2 [Dd]2 c4 | %11
[M:3/4] F2 [DF]2 G2 | F4 E2 | D4 F2 | E4 D2 | C6 | B2 B2 [Ge]2 | B2 z2 c2 |[M:7/4] [DB]6 z2 z2 z4 | %19
[M:3/4] [EB]6 | [DB]6 |] %21
V:2
 z4 z2 [B,,D,]2 | [D,F,B,]2 [E,G,C]2 [F,B,]2 .[F,,F,]2 | [B,,D,]6 [A,,F,]2 | %3
 [B,,F,]2 D,2 C,2 z B, | F,,8 | [F,A,]2 [C,G,][B,,G,] [A,,F,]2 .[C,G,C]2 | [F,A,C]6 [E,A,]2 | %7
 D,2 B,,2 F,2 [E,A,]2 | [D,B,]2 [B,,B,]2 [F,A,F]2 [E,A,C]2 | [D,F,B,]2 [B,,F,]2 [F,C]2 [E,A,]2 | %10
 [D,B,]2 [B,,F,]2 [F,,A,F]4 |[M:3/4] [D,B,]2 [B,,B,]2 [E,B,E]2 | [F,B,D]4 [F,A,C]2 | %13
 [B,,F,B,]4 [B,,D,B,]2 | B,2 z2 B,-[E,B,] | [F,A,]6 | [D,F,B,]2 [G,B,D]2 [E,C]2 | %17
 [F,B,]4 .[F,,A,F]2 |[M:7/4] [B,,F,]6 z2 z2 z4 |[M:3/4] [E,G,]6 | [B,,F,]6 |] %21
V:3
 x8 | z4 z2 [A,C]2[K:bass] | x6[K:treble] x2 | x8 | x8 | z4 z2 =E2 | x8 | x8 | x8 | x8 | x8 | %11
[M:3/4] x6 | x6 | x6 | z2 A,2 z G, | x6 | x6 | d2- [Fd]2 z E |[M:7/4] x14 |[M:3/4] x6 | x6 |] %21
V:4
 x8 | x8 | x8 | z4 z2 B,,2 | x8 | x8 | x8 | x8 | x8 | x8 | x8 |[M:3/4] x6 | x6 | x6 | %14
 [C,E,]4 .[D,F,]2 | x6 | x6 | x6 |[M:7/4] x14 |[M:3/4] x6 | x6 |] %21

